public/images/constellation-tooling.svg

<svg fill="none" height="207" viewBox="0 0 165 207" width="165" xmlns="http://www.w3.org/2000/svg"><path d="m43.9385 133.616 72.4565-41.4866-40.6894-24.6917-72.70291 42.4903z" stroke="#0b2c41" stroke-miterlimit="10"/><path d="m117.096 135.906-.239-44.3767" stroke="#0b2c41" stroke-miterlimit="10"/><path d="m2.65576 109.8.42377 44.419 41.05137 23.474 93.8451-53.661" stroke="#0b2c41" stroke-miterlimit="10"/><path d="m43.8076 133.805.3858 63.453" stroke="#0b2c41" stroke-linejoin="round"/><path d="m69.2028 77.6231 67.9562-38.8979-38.1616-23.1656-68.1878 39.8496z" stroke="#0b2c41" stroke-miterlimit="10"/><path d="m137.591 39.1197.215 40.6555-68.4185 39.1898-38.5088-22.0171-.3929-41.6586-25.28731-15.5352" stroke="#0b2c41" stroke-miterlimit="10"/><path d="m69.0793 77.8032.3626 41.1788" stroke="#0b2c41" stroke-linejoin="round"/><path d="m136.974 39.1796 24.972-14.2748" stroke="#0b2c41" stroke-miterlimit="10"/><path d="m40.3096 191.188 3.6136 4.664 4.0912-4.056-1.8183 5.728 5.2778 1.937-5.455 1.166 1.1942 5.993-3.6135-4.664-4.1529 4.098 1.8414-5.838-5.2393-1.861 5.3857-1.132z" fill="#ffa135"/><path d="m135.002 32.0809 2.535 4.381 3.852-2.8721-2.119 4.5611 4.223 2.3148-4.7.2744.37 5.1784-2.535-4.3811-3.922 2.8893 2.165-4.6554-4.199-2.2463 4.638-.24z" fill="#ffa135"/><path d="m4.75927 33.9326 2.29605 3.961 3.48258-2.5978-1.9185 4.1238 3.8139 2.092-4.24537.2486.33131 4.6811-2.29605-3.9609-3.53652 2.6149 1.95703-4.2096-3.798485-2.0233 4.191435-.2315z" fill="#ffa135"/><path d="m45.6413 178.945c-.7705 1.2-2.2344 1.457-3.3131.685-1.0786-.857-1.3098-2.486-.6164-3.686.7705-1.2 2.2344-1.458 3.3131-.686 1.0787.857 1.3099 2.486.6164 3.687z" fill="#0b2c41"/><path d="m118.668 137.869c-.771 1.2-2.235 1.458-3.313.686-1.079-.857-1.31-2.486-.617-3.687.694-1.2 2.235-1.457 3.313-.685 1.079.857 1.31 2.486.617 3.686z" fill="#0b2c41"/><path d="m65.3272 75.8484c-.7243 1.1232-2.0957 1.3718-3.1128.6431-1.0093-.806-1.2328-2.332-.5778-3.4637.6549-1.1317 2.0957-1.3718 3.1127-.643 1.0093.8059 1.2328 2.3319.5779 3.4636z" fill="#0b2c41"/><path d="m4.65163 111.428c-.72425 1.123-2.09571 1.372-3.11275.643-1.009336-.806-1.232777-2.332-.577865-3.463.654915-1.132 2.095715-1.372 3.112755-.643 1.00933.805 1.23277 2.332.57786 3.463z" fill="#0b2c41"/><path d="m118.46 92.6268c0 1.4575-1.079 2.6578-2.389 2.6578s-2.388-1.2003-2.388-2.6578 1.078-2.6577 2.388-2.6577 2.389 1.2002 2.389 2.6577z" fill="#0b2c41"/><path d="m32.3502 92.3437c0 1.1403-.8398 2.0748-1.8645 2.0748-1.0248 0-1.8646-.9345-1.8646-2.0748s.8398-2.0748 1.8646-2.0748c1.0247 0 1.8645.9345 1.8645 2.0748z" fill="#0b2c41"/><path d="m139.563 79.8008c0 1.1403-.84 2.0748-1.864 2.0748-1.025 0-1.865-.9345-1.865-2.0748s.84-2.0748 1.865-2.0748c1.024 0 1.864.9345 1.864 2.0748z" fill="#0b2c41"/><path d="m83.8648 70.6273c0 1.2431-.9246 2.2719-2.0418 2.2719s-2.0418-1.0288-2.0418-2.2719c0-1.2432.9246-2.272 2.0418-2.272s2.0418 1.0288 2.0418 2.272z" fill="#0b2c41"/><path d="m32.6508 56.9524c-.7704 1.2003-2.2344 1.4575-3.313.6859-1.0787-.8574-1.3099-2.4863-.6164-3.6866.7705-1.2003 2.2344-1.4575 3.3131-.6859 1.0786.8574 1.3868 2.4863.6163 3.6866z" fill="#0b2c41"/><path d="m80.5018 135.1 3.1263 2.624 2.2122-3.49-.4258 4.276 3.8429.393-3.5625 1.664 1.5684 3.883-3.064-2.531-2.2746 3.479.4986-4.276-3.843-.393 3.5625-1.664z" fill="#7ebdbf"/><path d="m76.3527.247437.7782 3.772333 3.3362-.9688-2.5195 2.64063 2.4271 2.74352-3.3439-1.1317-.9169 3.72088-.7782-3.77232-3.3901.9688 2.5657-2.64063-2.4193-2.74352 3.2899 1.1317z" fill="#7ebdbf"/><path d="m70.5897 119.745c-.5548.866-1.6026 1.046-2.3808.488-.7782-.617-.94-1.783-.4469-2.649s1.6026-1.046 2.3808-.488c.7782.617.94 1.783.4469 2.649z" fill="#0b2c41"/><path d="m44.9323 135.271c-.547.849-1.5872 1.038-2.35.489-.7627-.609-.9322-1.766-.4391-2.615s1.5872-1.037 2.3499-.489c.7628.609.9323 1.767.4392 2.615z" fill="#0b2c41"/><path d="m53.7544 183.909c-.5239.814-1.5256.994-2.2575.471-.732-.583-.8938-1.697-.4238-2.512.47-.814 1.5256-.994 2.2575-.472.732.583.8938 1.698.4238 2.513z" fill="#7ebdbf"/><path d="m54.6867 163.873c-.2465.385-.7165.471-1.0633.222-.3467-.274-.4237-.797-.2003-1.183.2235-.386.7166-.471 1.0633-.223.3467.275.4238.798.2003 1.184z" fill="#7ebdbf"/><path d="m123.96 120.735c-.55.864-1.614 1.045-2.39.488-.776-.613-.939-1.797-.438-2.66.5-.864 1.614-1.045 2.39-.488.776.613.939 1.797.438 2.66z" fill="#7ebdbf"/><path d="m31.9497 98.0452c-.339.5316-.994.643-1.4717.3001-.4777-.3773-.5778-1.106-.2696-1.6376.3082-.5315.9939-.643 1.4716-.3.4777.3772.5779 1.1059.2697 1.6375z" fill="#0b2c41"/><path d="m111.353 145.951c-.285.446-.824.54-1.225.257-.4-.317-.485-.917-.231-1.363s.825-.54 1.225-.257c.401.317.486.917.231 1.363z" fill="#7ebdbf"/><path d="m100.592 17.1287c-.524.8145-1.5255.9945-2.2575.4715-.7319-.583-.8937-1.6975-.4238-2.512.47-.8145 1.5256-.9945 2.2573-.4716.732.583.894 1.6976.424 2.5121z" fill="#0b2c41"/><path d="m70.1274 78.3689c-.339.5316-.9939.6431-1.4716.3001-.4777-.3772-.5779-1.106-.2697-1.6375.3082-.5316.9939-.643 1.4716-.3001.4777.3772.5779 1.106.2697 1.6375z" fill="#0b2c41"/><path d="m4.70528 155.282c-.77048 1.2-2.2344 1.457-3.31308.686-1.07868-.858-1.3098249-2.487-.616389-3.687.770479-1.2 2.234399-1.457 3.313079-.686 1.07868.858 1.30983 2.487.61639 3.687z" fill="#0b2c41"/><path d="m164.072 26.7052c-.77 1.2002-2.234 1.4575-3.313.6858-1.079-.8573-1.31-2.4863-.616-3.6866.693-1.2003 2.234-1.4575 3.313-.6858 1.079.8573 1.31 2.4863.616 3.6866z" fill="#0b2c41"/><path d="m139.471 125.172c-.678 1.054-1.965 1.286-2.913.6-.947-.755-1.155-2.186-.539-3.241.616-1.054 1.965-1.286 2.912-.6.948.754 1.156 2.186.54 3.241z" fill="#0b2c41"/><g fill="#7ebdbf"><path d="m105.389 91.9318c-.474.7417-1.372.8986-2.038.4279-.667-.5277-.808-1.5261-.385-2.2678s1.372-.8986 2.038-.4279c.667.5277.808 1.5261.385 2.2678z"/><path d="m53.6566 58.8864c-.5819.9045-1.6942 1.1044-2.5071.5236-.8129-.6474-.9926-1.8852-.4706-2.7897.5219-.9045 1.6942-1.1045 2.5071-.5237.8128.6475.9925 1.8852.4706 2.7898z"/><path d="m14.663 135.909c-.6837 1.063-1.9909 1.298-2.9461.615-.9553-.76-1.1664-2.215-.553-3.278.6133-1.063 1.9909-1.298 2.9461-.615.9552.761 1.1664 2.215.553 3.278z"/><path d="m9.57502 125.09c-.32176.503-.93513.615-1.38761.291-.45248-.358-.55303-1.041-.26143-1.544.2916-.504.93513-.616 1.38761-.291.45248.358.55303 1.04.26143 1.544z"/><path d="m26.5302 61.0617c-.2465.3858-.7165.4716-1.0633.2229-.3467-.2743-.4237-.7973-.2003-1.1831.2235-.3858.7166-.4716 1.0633-.2229.3467.2743.4238.7973.2003 1.1831z"/><path d="m58.0628 50.4029c-.2738.4285-.7958.5237-1.1808.2476-.3851-.3047-.4707-.8855-.2225-1.314.2481-.4284.7957-.5236 1.1808-.2475.385.3047.4706.8855.2225 1.3139z"/><path d="m108.243 11.9846c-.246.3858-.716.4715-1.063.2229-.347-.2744-.424-.7974-.2-1.1832.223-.3858.716-.4715 1.063-.2229.346.2744.424.7974.2 1.1832z"/><path d="m11.9324 48.9105c-.339.523-.9708.6344-1.4408.3001-.47-.3773-.57013-1.0803-.2696-1.6033.3004-.523.9708-.6344 1.4408-.3001.47.3773.5701 1.0803.2696 1.6033z"/><path d="m147.052 23.6444c-.308.4887-.901.5916-1.34.2743-.439-.3429-.532-1.0031-.247-1.4917.285-.4887.902-.5916 1.341-.2744.439.3429.531 1.0031.246 1.4918z"/><path d="m86.4693 63.0397c-.2542.3944-.7242.4715-1.0786.2229-.3545-.2829-.4238-.8059-.2004-1.2003.2235-.3944.7243-.4715 1.0787-.2229.3544.2829.4238.8059.2003 1.2003z"/><path d="m75.0277 110.888c-.1849.292-.5471.36-.809.172-.262-.206-.3159-.609-.1541-.9.1618-.292.547-.36.809-.172.2619.206.3159.609.1541.9z"/><path d="m91.213 133.022c-.3429.54-1.0144.667-1.5002.318-.4857-.382-.5857-1.129-.2857-1.67.3-.54 1.0144-.667 1.5002-.318.4857.382.5857 1.129.2857 1.67z"/><path d="m6.99374 163.95c-.18492.291-.54705.36-.80901.171-.26196-.205-.3159-.608-.1541-.9.1618-.291.54705-.36.80901-.171.26197.205.3159.608.1541.9z"/></g></svg>

<svg width="165" height="207" viewBox="0 0 165 207" fill="none" xmlns="http://www.w3.org/2000/svg">
<path d="M43.9385 133.616L116.395 92.1294L75.7056 67.4377L3.00269 109.928L43.9385 133.616Z" stroke="#0B2C41" stroke-miterlimit="10"/>
<path d="M117.096 135.906L116.857 91.5293" stroke="#0B2C41" stroke-miterlimit="10"/>
<path d="M2.65576 109.8L3.07953 154.219L44.1309 177.693L137.976 124.032" stroke="#0B2C41" stroke-miterlimit="10"/>
<path d="M43.8076 133.805L44.1934 197.258" stroke="#0B2C41" stroke-linejoin="round"/>
<path d="M69.2028 77.6231L137.159 38.7252L98.9974 15.5596L30.8096 55.4092L69.2028 77.6231Z" stroke="#0B2C41" stroke-miterlimit="10"/>
<path d="M137.591 39.1197L137.806 79.7752L69.3875 118.965L30.8787 96.9479L30.4858 55.2893L5.19849 39.7541" stroke="#0B2C41" stroke-miterlimit="10"/>
<path d="M69.0793 77.8032L69.4419 118.982" stroke="#0B2C41" stroke-linejoin="round"/>
<path d="M136.974 39.1796L161.946 24.9048" stroke="#0B2C41" stroke-miterlimit="10"/>
<path d="M40.3096 191.188L43.9232 195.852L48.0144 191.796L46.1961 197.524L51.4739 199.461L46.0189 200.627L47.2131 206.62L43.5996 201.956L39.4467 206.054L41.2881 200.216L36.0488 198.355L41.4345 197.223L40.3096 191.188Z" fill="#FFA135"/>
<path d="M135.002 32.0809L137.537 36.4619L141.389 33.5898L139.27 38.1509L143.493 40.4657L138.793 40.7401L139.163 45.9185L136.628 41.5374L132.706 44.4267L134.871 39.7713L130.672 37.525L135.31 37.285L135.002 32.0809Z" fill="#FFA135"/>
<path d="M4.75927 33.9326L7.05532 37.8936L10.5379 35.2958L8.6194 39.4196L12.4333 41.5116L8.18793 41.7602L8.51924 46.4413L6.22319 42.4804L2.68667 45.0953L4.6437 40.8857L0.845215 38.8624L5.03665 38.6309L4.75927 33.9326Z" fill="#FFA135"/>
<path d="M45.6413 178.945C44.8708 180.145 43.4069 180.402 42.3282 179.63C41.2496 178.773 41.0184 177.144 41.7118 175.944C42.4823 174.744 43.9462 174.486 45.0249 175.258C46.1036 176.115 46.3348 177.744 45.6413 178.945Z" fill="#0B2C41"/>
<path d="M118.668 137.869C117.897 139.069 116.433 139.327 115.355 138.555C114.276 137.698 114.045 136.069 114.738 134.868C115.432 133.668 116.973 133.411 118.051 134.183C119.13 135.04 119.361 136.669 118.668 137.869Z" fill="#0B2C41"/>
<path d="M65.3272 75.8484C64.6029 76.9716 63.2315 77.2202 62.2144 76.4915C61.2051 75.6855 60.9816 74.1595 61.6366 73.0278C62.2915 71.8961 63.7323 71.656 64.7493 72.3848C65.7586 73.1907 65.9821 74.7167 65.3272 75.8484Z" fill="#0B2C41"/>
<path d="M4.65163 111.428C3.92738 112.551 2.55592 112.8 1.53888 112.071C0.529544 111.265 0.306103 109.739 0.961015 108.608C1.61593 107.476 3.05673 107.236 4.07377 107.965C5.0831 108.77 5.30654 110.297 4.65163 111.428Z" fill="#0B2C41"/>
<path d="M118.46 92.6268C118.46 94.0843 117.381 95.2846 116.071 95.2846C114.761 95.2846 113.683 94.0843 113.683 92.6268C113.683 91.1693 114.761 89.9691 116.071 89.9691C117.381 89.9691 118.46 91.1693 118.46 92.6268Z" fill="#0B2C41"/>
<path d="M32.3502 92.3437C32.3502 93.484 31.5104 94.4185 30.4857 94.4185C29.4609 94.4185 28.6211 93.484 28.6211 92.3437C28.6211 91.2034 29.4609 90.2689 30.4857 90.2689C31.5104 90.2689 32.3502 91.2034 32.3502 92.3437Z" fill="#0B2C41"/>
<path d="M139.563 79.8008C139.563 80.9411 138.723 81.8756 137.699 81.8756C136.674 81.8756 135.834 80.9411 135.834 79.8008C135.834 78.6605 136.674 77.726 137.699 77.726C138.723 77.726 139.563 78.6605 139.563 79.8008Z" fill="#0B2C41"/>
<path d="M83.8648 70.6273C83.8648 71.8704 82.9402 72.8992 81.823 72.8992C80.7058 72.8992 79.7812 71.8704 79.7812 70.6273C79.7812 69.3841 80.7058 68.3553 81.823 68.3553C82.9402 68.3553 83.8648 69.3841 83.8648 70.6273Z" fill="#0B2C41"/>
<path d="M32.6508 56.9524C31.8804 58.1527 30.4164 58.4099 29.3378 57.6383C28.2591 56.7809 28.0279 55.152 28.7214 53.9517C29.4919 52.7514 30.9558 52.4942 32.0345 53.2658C33.1131 54.1232 33.4213 55.7521 32.6508 56.9524Z" fill="#0B2C41"/>
<path d="M80.5018 135.1L83.6281 137.724L85.8403 134.234L85.4145 138.51L89.2574 138.903L85.6949 140.567L87.2633 144.45L84.1993 141.919L81.9247 145.398L82.4233 141.122L78.5803 140.729L82.1428 139.065L80.5018 135.1Z" fill="#7EBDBF"/>
<path d="M76.3527 0.247437L77.1309 4.01977L80.4671 3.05097L77.9476 5.6916L80.3747 8.43512L77.0308 7.30342L76.1139 11.0243L75.3357 7.25198L71.9456 8.22078L74.5113 5.58015L72.092 2.83663L75.3819 3.96833L76.3527 0.247437Z" fill="#7EBDBF"/>
<path d="M70.5897 119.745C70.0349 120.611 68.9871 120.791 68.2089 120.233C67.4307 119.616 67.2689 118.45 67.762 117.584C68.2551 116.718 69.3646 116.538 70.1428 117.096C70.921 117.713 71.0828 118.879 70.5897 119.745Z" fill="#0B2C41"/>
<path d="M44.9323 135.271C44.3853 136.12 43.3451 136.309 42.5823 135.76C41.8196 135.151 41.6501 133.994 42.1432 133.145C42.6363 132.296 43.7304 132.108 44.4931 132.656C45.2559 133.265 45.4254 134.423 44.9323 135.271Z" fill="#0B2C41"/>
<path d="M53.7544 183.909C53.2305 184.723 52.2288 184.903 51.4969 184.38C50.7649 183.797 50.6031 182.683 51.0731 181.868C51.5431 181.054 52.5987 180.874 53.3306 181.396C54.0626 181.979 54.2244 183.094 53.7544 183.909Z" fill="#7EBDBF"/>
<path d="M54.6867 163.873C54.4402 164.258 53.9702 164.344 53.6234 164.095C53.2767 163.821 53.1997 163.298 53.4231 162.912C53.6466 162.526 54.1397 162.441 54.4864 162.689C54.8331 162.964 54.9102 163.487 54.6867 163.873Z" fill="#7EBDBF"/>
<path d="M123.96 120.735C123.41 121.599 122.346 121.78 121.57 121.223C120.794 120.61 120.631 119.426 121.132 118.563C121.632 117.699 122.746 117.518 123.522 118.075C124.298 118.688 124.461 119.872 123.96 120.735Z" fill="#7EBDBF"/>
<path d="M31.9497 98.0452C31.6107 98.5768 30.9557 98.6882 30.478 98.3453C30.0003 97.968 29.9002 97.2393 30.2084 96.7077C30.5166 96.1762 31.2023 96.0647 31.68 96.4077C32.1577 96.7849 32.2579 97.5136 31.9497 98.0452Z" fill="#0B2C41"/>
<path d="M111.353 145.951C111.068 146.397 110.529 146.491 110.128 146.208C109.728 145.891 109.643 145.291 109.897 144.845C110.151 144.399 110.722 144.305 111.122 144.588C111.523 144.905 111.608 145.505 111.353 145.951Z" fill="#7EBDBF"/>
<path d="M100.592 17.1287C100.068 17.9432 99.0665 18.1232 98.3345 17.6002C97.6026 17.0172 97.4408 15.9027 97.9107 15.0882C98.3807 14.2737 99.4363 14.0937 100.168 14.6166C100.9 15.1996 101.062 16.3142 100.592 17.1287Z" fill="#0B2C41"/>
<path d="M70.1274 78.3689C69.7884 78.9005 69.1335 79.012 68.6558 78.669C68.1781 78.2918 68.0779 77.563 68.3861 77.0315C68.6943 76.4999 69.38 76.3885 69.8577 76.7314C70.3354 77.1086 70.4356 77.8374 70.1274 78.3689Z" fill="#0B2C41"/>
<path d="M4.70528 155.282C3.9348 156.482 2.47088 156.739 1.3922 155.968C0.31352 155.11 0.0823751 153.481 0.775811 152.281C1.54629 151.081 3.01021 150.824 4.08889 151.595C5.16757 152.453 5.39872 154.082 4.70528 155.282Z" fill="#0B2C41"/>
<path d="M164.072 26.7052C163.302 27.9054 161.838 28.1627 160.759 27.391C159.68 26.5337 159.449 24.9047 160.143 23.7044C160.836 22.5041 162.377 22.2469 163.456 23.0186C164.535 23.8759 164.766 25.5049 164.072 26.7052Z" fill="#0B2C41"/>
<path d="M139.471 125.172C138.793 126.226 137.506 126.458 136.558 125.772C135.611 125.017 135.403 123.586 136.019 122.531C136.635 121.477 137.984 121.245 138.931 121.931C139.879 122.685 140.087 124.117 139.471 125.172Z" fill="#0B2C41"/>
<path d="M105.389 91.9318C104.915 92.6735 104.017 92.8304 103.351 92.3597C102.684 91.832 102.543 90.8336 102.966 90.0919C103.389 89.3502 104.338 89.1933 105.004 89.664C105.671 90.1917 105.812 91.1901 105.389 91.9318Z" fill="#7EBDBF"/>
<path d="M53.6566 58.8864C53.0747 59.7909 51.9624 59.9908 51.1495 59.41C50.3366 58.7626 50.1569 57.5248 50.6789 56.6203C51.2008 55.7158 52.3731 55.5158 53.186 56.0966C53.9988 56.7441 54.1785 57.9818 53.6566 58.8864Z" fill="#7EBDBF"/>
<path d="M14.663 135.909C13.9793 136.972 12.6721 137.207 11.7169 136.524C10.7616 135.764 10.5505 134.309 11.1639 133.246C11.7772 132.183 13.1548 131.948 14.11 132.631C15.0652 133.392 15.2764 134.846 14.663 135.909Z" fill="#7EBDBF"/>
<path d="M9.57502 125.09C9.25326 125.593 8.63989 125.705 8.18741 125.381C7.73493 125.023 7.63438 124.34 7.92598 123.837C8.21758 123.333 8.86111 123.221 9.31359 123.546C9.76607 123.904 9.86662 124.586 9.57502 125.09Z" fill="#7EBDBF"/>
<path d="M26.5302 61.0617C26.2837 61.4475 25.8137 61.5333 25.4669 61.2846C25.1202 61.0103 25.0432 60.4873 25.2666 60.1015C25.4901 59.7157 25.9832 59.6299 26.3299 59.8786C26.6766 60.1529 26.7537 60.6759 26.5302 61.0617Z" fill="#7EBDBF"/>
<path d="M58.0628 50.4029C57.789 50.8314 57.267 50.9266 56.882 50.6505C56.4969 50.3458 56.4113 49.765 56.6595 49.3365C56.9076 48.9081 57.4552 48.8129 57.8403 49.089C58.2253 49.3937 58.3109 49.9745 58.0628 50.4029Z" fill="#7EBDBF"/>
<path d="M108.243 11.9846C107.997 12.3704 107.527 12.4561 107.18 12.2075C106.833 11.9331 106.756 11.4101 106.98 11.0243C107.203 10.6385 107.696 10.5528 108.043 10.8014C108.389 11.0758 108.467 11.5988 108.243 11.9846Z" fill="#7EBDBF"/>
<path d="M11.9324 48.9105C11.5934 49.4335 10.9616 49.5449 10.4916 49.2106C10.0216 48.8333 9.92147 48.1303 10.222 47.6073C10.5224 47.0843 11.1928 46.9729 11.6628 47.3072C12.1328 47.6845 12.2329 48.3875 11.9324 48.9105Z" fill="#7EBDBF"/>
<path d="M147.052 23.6444C146.744 24.1331 146.151 24.236 145.712 23.9187C145.273 23.5758 145.18 22.9156 145.465 22.427C145.75 21.9383 146.367 21.8354 146.806 22.1526C147.245 22.4955 147.337 23.1557 147.052 23.6444Z" fill="#7EBDBF"/>
<path d="M86.4693 63.0397C86.2151 63.4341 85.7451 63.5112 85.3907 63.2626C85.0362 62.9797 84.9669 62.4567 85.1903 62.0623C85.4138 61.6679 85.9146 61.5908 86.269 61.8394C86.6234 62.1223 86.6928 62.6453 86.4693 63.0397Z" fill="#7EBDBF"/>
<path d="M75.0277 110.888C74.8428 111.18 74.4806 111.248 74.2187 111.06C73.9567 110.854 73.9028 110.451 74.0646 110.16C74.2264 109.868 74.6116 109.8 74.8736 109.988C75.1355 110.194 75.1895 110.597 75.0277 110.888Z" fill="#7EBDBF"/>
<path d="M91.213 133.022C90.8701 133.562 90.1986 133.689 89.7128 133.34C89.2271 132.958 89.1271 132.211 89.4271 131.67C89.7271 131.13 90.4415 131.003 90.9273 131.352C91.413 131.734 91.513 132.481 91.213 133.022Z" fill="#7EBDBF"/>
<path d="M6.99374 163.95C6.80882 164.241 6.44669 164.31 6.18473 164.121C5.92277 163.916 5.86883 163.513 6.03063 163.221C6.19243 162.93 6.57768 162.861 6.83964 163.05C7.10161 163.255 7.15554 163.658 6.99374 163.95Z" fill="#7EBDBF"/>
</svg>
